X: 21112
T: DAINTY DAVIE
%R: reel
B: "Edinburgh Repository of Music" v.2 p.111 #2
F: http://digital.nls.uk/special-collections-of-printed-music/pageturner.cfm?id=87776133
Z: 2015 John Chambers <jc:trillian.mit.edu>
M: C|
L: 1/16
K: G
g2 |\
d3cB2 AB AGFE G4 | G2d2 BcdB G2d2B2g2 |\
d3c B2AB AGFE G2D2 | E2ga bagf e3fg2 :|
|: d2 |\
g2b2g2b2 g2b2 c'bag | f2a2d2a2 f2a2 bagf |\
g3ab2 ab (c'b).a.g (gf).e.d | (ef).g.a bagf e3fg2 :|

%%sep 2 1 500
%%sep 1 1 500

